SF_Symbols/cloud.moon.bolt.fill.svg

<?xml version="1.0" encoding="UTF-8"?>
<svg xmlns="http://www.w3.org/2000/svg" xmlns:xlink="http://www.w3.org/1999/xlink" width="24" height="24" viewBox="0 0 24 24" version="1.1">
<g id="surface1">
<path style=" stroke:none;fill-rule:nonzero;fill:rgb(100%,100%,100%);fill-opacity:1;" d="M 4.152344 15.980469 L 13.8125 15.980469 C 14.652344 15.980469 15.410156 15.789062 16.089844 15.402344 C 16.769531 15.007812 17.304688 14.480469 17.707031 13.820312 C 18.105469 13.160156 18.304688 12.417969 18.304688 11.589844 C 18.304688 10.773438 18.097656 10.042969 17.6875 9.394531 C 17.28125 8.738281 16.730469 8.21875 16.027344 7.839844 C 15.324219 7.457031 14.527344 7.265625 13.632812 7.257812 C 13.289062 6.59375 12.855469 6.023438 12.339844 5.554688 C 11.828125 5.082031 11.25 4.726562 10.605469 4.480469 C 9.96875 4.230469 9.292969 4.105469 8.570312 4.105469 C 7.84375 4.105469 7.15625 4.238281 6.507812 4.5 C 5.859375 4.761719 5.28125 5.128906 4.769531 5.597656 C 4.257812 6.070312 3.839844 6.617188 3.519531 7.25 C 3.195312 7.882812 3.003906 8.5625 2.9375 9.292969 C 2.175781 9.519531 1.570312 9.933594 1.117188 10.535156 C 0.667969 11.132812 0.445312 11.820312 0.445312 12.605469 C 0.445312 13.273438 0.601562 13.859375 0.910156 14.367188 C 1.226562 14.871094 1.660156 15.269531 2.214844 15.554688 C 2.773438 15.839844 3.417969 15.980469 4.152344 15.980469 Z M 19.417969 11.445312 C 20.117188 11.320312 20.738281 11.105469 21.285156 10.792969 C 21.832031 10.480469 22.296875 10.117188 22.679688 9.707031 C 23.066406 9.289062 23.359375 8.863281 23.5625 8.429688 C 23.765625 7.992188 23.867188 7.59375 23.867188 7.222656 C 23.867188 7.050781 23.828125 6.90625 23.75 6.792969 C 23.671875 6.679688 23.5625 6.625 23.417969 6.625 C 23.277344 6.625 23.105469 6.671875 22.902344 6.769531 C 22.699219 6.863281 22.453125 6.957031 22.160156 7.054688 C 21.867188 7.148438 21.519531 7.195312 21.105469 7.195312 C 20.382812 7.195312 19.75 7.058594 19.214844 6.785156 C 18.683594 6.507812 18.273438 6.117188 17.980469 5.625 C 17.691406 5.132812 17.542969 4.550781 17.542969 3.882812 C 17.542969 3.492188 17.597656 3.132812 17.707031 2.8125 C 17.8125 2.492188 17.917969 2.210938 18.019531 1.972656 C 18.125 1.730469 18.179688 1.527344 18.179688 1.367188 C 18.179688 1.230469 18.132812 1.117188 18.035156 1.035156 C 17.945312 0.953125 17.8125 0.914062 17.632812 0.917969 C 17.21875 0.929688 16.789062 1.050781 16.347656 1.277344 C 15.90625 1.503906 15.484375 1.808594 15.082031 2.195312 C 14.679688 2.582031 14.332031 3.03125 14.035156 3.542969 C 13.742188 4.054688 13.539062 4.609375 13.417969 5.207031 C 13.554688 5.335938 13.691406 5.492188 13.820312 5.667969 C 13.953125 5.84375 14.070312 6.046875 14.179688 6.285156 C 14.933594 6.339844 15.628906 6.515625 16.257812 6.8125 C 16.890625 7.105469 17.4375 7.484375 17.902344 7.957031 C 18.371094 8.417969 18.738281 8.953125 19 9.554688 C 19.269531 10.148438 19.40625 10.78125 19.417969 11.445312 Z M 11.597656 19.242188 L 9.644531 19.242188 L 9.625 19.625 L 10.644531 17.695312 C 10.695312 17.59375 10.707031 17.515625 10.667969 17.457031 C 10.632812 17.390625 10.570312 17.355469 10.472656 17.355469 L 8.605469 17.355469 C 8.480469 17.355469 8.394531 17.382812 8.339844 17.429688 C 8.285156 17.46875 8.238281 17.535156 8.195312 17.625 L 7.054688 20.222656 C 7.011719 20.332031 7.011719 20.414062 7.054688 20.472656 C 7.09375 20.539062 7.171875 20.570312 7.285156 20.570312 L 8.882812 20.570312 L 9 20.042969 L 7.632812 23.332031 C 7.582031 23.460938 7.601562 23.542969 7.695312 23.582031 C 7.785156 23.617188 7.871094 23.585938 7.957031 23.492188 L 11.730469 19.667969 C 11.828125 19.582031 11.859375 19.484375 11.832031 19.382812 C 11.800781 19.289062 11.722656 19.242188 11.597656 19.242188 Z M 11.597656 19.242188 "/>
</g>
</svg>

<svg xmlns="http://www.w3.org/2000/svg" width="24" height="24"><path style="stroke:none;fill-rule:nonzero;fill:#fff;fill-opacity:1" d="M4.152 15.98h9.66c.84 0 1.598-.19 2.278-.578a4.515 4.515 0 0 0 1.617-1.582c.398-.66.598-1.402.598-2.23 0-.817-.207-1.547-.617-2.195a4.32 4.32 0 0 0-1.66-1.555c-.704-.383-1.5-.574-2.395-.582a5.996 5.996 0 0 0-1.293-1.703 5.359 5.359 0 0 0-1.735-1.075 5.497 5.497 0 0 0-2.035-.375 5.41 5.41 0 0 0-2.062.395c-.64.258-1.23.629-1.738 1.098A5.806 5.806 0 0 0 3.52 7.25a5.506 5.506 0 0 0-.583 2.043c-.761.227-1.367.64-1.82 1.242-.449.598-.672 1.285-.672 2.07 0 .668.157 1.254.465 1.762.317.504.75.903 1.305 1.188.558.285 1.203.425 1.937.425Zm15.266-4.535a5.767 5.767 0 0 0 3.262-1.738c.386-.418.68-.844.883-1.277.203-.438.304-.836.304-1.207a.759.759 0 0 0-.117-.43.377.377 0 0 0-.332-.168c-.14 0-.313.047-.516.145-.203.093-.449.187-.742.285-.293.093-.64.14-1.055.14-.722 0-1.355-.136-1.89-.41a3.044 3.044 0 0 1-1.235-1.16c-.289-.492-.437-1.074-.437-1.742 0-.39.055-.75.164-1.07.105-.32.211-.602.313-.84.105-.243.16-.446.16-.606a.412.412 0 0 0-.145-.332c-.09-.082-.223-.12-.402-.117-.414.012-.844.133-1.285.36-.465.242-.891.55-1.266.917-.402.387-.75.836-1.047 1.348a5.517 5.517 0 0 0-.617 1.664c.137.129.273.285.402.461.133.176.25.379.36.617.754.055 1.449.23 2.078.527.633.293 1.18.672 1.644 1.145.47.461.836.996 1.098 1.598.27.593.406 1.226.418 1.89Zm-7.82 7.797H9.645l-.02.383 1.02-1.93c.05-.101.062-.18.023-.238-.035-.066-.098-.102-.195-.102H8.605c-.125 0-.21.028-.265.075a.511.511 0 0 0-.145.195l-1.14 2.598c-.043.109-.043.191 0 .25.039.066.117.097.23.097h1.598L9 20.043l-1.367 3.289c-.051.129-.031.211.062.25.09.035.176.004.262-.09l3.773-3.824c.098-.086.13-.184.102-.285-.031-.094-.11-.14-.234-.14Zm0 0"/></svg>
